X: 1023
T: The King's Delight.
%R: jig
B: Henry Playford "Apollo's Banquet", London 1687 (5th Edition)
F: https://archive.org/details/apollosbanquetco01rugg
Z: 2017 John Chambers <jc:trillian.mit.edu>
M: 6/4
L: 1/8
K: D
% - - - - - - - - - -
d2 |\
d4d2 a4a2 | f3ef2 d3ed2 |\
e2f2e2 a3ba2/g2/ | f6 e4 :: d2 |\
d4d2 a4a2 | f3ef2 d2e2f2 |
g3ag2 f3ef2 | e2d2e2 A2B2c2 |\
d2e2f2 (g2/f2)(e2/d2) |  e4A2 d2e2f2 |\
(g2/f2)(e2/d2) e6 | d4 |]
% - - - - - - - - - -

%%sep 1 1 500
%%sep 1 1 500

